X: 104202
Q:"Reel."
M: C
L: 1/8
K: D
|: B |\
e |\
f2fd g2ge | f2fd (Bc)de |
f2fd g2ge | afed B2(de) |\
f2fd g2ge | f2fd (Bc)de |\
fafd gbge | afed Bcd :|


